X: 42102
T: Wandering Willie
R: waltz
M: 3/4
K: Fmajor
c3B AG|F3GF2|G3AG2|A2d4|
c3B AG|F3GA2|A3^GA2|D6:|
|:A2d2^c2|d3ef2|c3d cB|A3Bc2|
A2d2^c2|d3ef2|A3^GA2|D6:|

